X: 1
T:Scotland the Brave
M:6/8
L:1/8
Q:80
C:arr. David Williams
S:Jig
K:HP
[| e|
{g}A{d}A{e}A{g}cAe|
a{g}a{g}a{g}ae{g}A|
{g}dfd{g}cec|  !
{g}Be{A}e{g}ec{e}B| |
{g}A{d}A{e}A{g}cAe|
a{g}a{g}a{g}ae{g}A|  !
{g}dfd{g}cec|
{g}B{d}A{e}A{gAGAG}A2|] |
{d}e|  !
a{g}a{g}a{g}ae{g}A|
a{g}a{g}a{g}ac{g}e|
a{g}ag{a}faf|  !
{g}eae{g}dc{g}B| |
{g}A{d}A{e}A{g}cAe|
a{g}a{g}a{g}ae{g}A|  !
{g}dfd{g}cec|
{g}B{d}A{e}A{gAGAG}A2|]
